Newaita-dark/apps/48/com.github.freeeradicals.elements.svg

<svg height="48" viewBox="0 0 48 48" width="48" xmlns="http://www.w3.org/2000/svg" xmlns:xlink="http://www.w3.org/1999/xlink"><linearGradient id="a" gradientUnits="userSpaceOnUse" x1="23.81478" x2="23.81478" y1="42.0509045" y2="44.03547050005"><stop offset="0" stop-opacity=".27451"/><stop offset="1" stop-opacity="0"/></linearGradient><linearGradient id="b"><stop offset="0" stop-opacity=".313726"/><stop offset=".222222" stop-opacity=".27451"/><stop offset="1" stop-opacity="0"/></linearGradient><radialGradient id="c" cx="450.908936" cy="189.579361" gradientTransform="matrix(.00000026 -.117199 -.210958 -.00000015 78.195972 95.392999)" gradientUnits="userSpaceOnUse" r="21.166656" xlink:href="#b"/><radialGradient id="d" cx="450.908936" cy="189.579361" gradientTransform="matrix(-.00000026 .117199 .210958 .00000015 -30.56642 -11.291218)" gradientUnits="userSpaceOnUse" r="21.166656" xlink:href="#b"/><radialGradient id="e" cx="450.908936" cy="189.579361" gradientTransform="matrix(-.00000026 -.117199 .210958 -.00000015 -30.56642 95.392999)" gradientUnits="userSpaceOnUse" r="21.166656" xlink:href="#b"/><radialGradient id="f" cx="450.908936" cy="189.579361" gradientTransform="matrix(.00000026 .117199 -.210958 .00000015 78.195969 -11.291219)" gradientUnits="userSpaceOnUse" r="21.166656" xlink:href="#b"/><linearGradient id="g" gradientUnits="userSpaceOnUse" x1="15.87652349995" x2="15.87652349995" y1="42.0509015" y2="4.3441580001"><stop offset="0" stop-color="#42a5f5"/><stop offset="1" stop-color="#64b5f6"/></linearGradient><linearGradient id="h"><stop offset="0" stop-color="#bdbdbd"/><stop offset="1" stop-color="#e0e0e0"/></linearGradient><linearGradient id="i" gradientUnits="userSpaceOnUse" x1="15.876544" x2="15.876544" xlink:href="#h" y1="42.05096580616" y2="4.34417306195"/><linearGradient id="j" gradientUnits="userSpaceOnUse" x1="35.722179" x2="35.722179" xlink:href="#h" y1="19.22839821875" y2="6.3287225"/><path d="m8.929688 41.902344h29.769531v2.207031h-29.769531zm0 0" fill="url(#a)"/><path d="m38.699219 42.050781h3.96875v-1.984375h-3.96875zm0 0" fill="url(#c)"/><path d="m8.929688 42.050781h-3.96875v1.984375h3.96875zm0 0" fill="url(#d)"/><path d="m8.929688 42.050781h-3.96875v-1.984375h3.96875zm0 0" fill="url(#e)"/><path d="m38.699219 42.050781h3.96875v1.984375h-3.96875zm0 0" fill="url(#f)"/><path d="m6.945312 4.34375h33.738282c1.097656 0 1.984375.890625 1.984375 1.984375v33.738281c0 1.097656-.886719 1.984375-1.984375 1.984375h-33.738282c-1.09375 0-1.984374-.886719-1.984374-1.984375v-33.738281c0-1.09375.890624-1.984375 1.984374-1.984375zm0 0" fill="url(#g)"/><path d="m6.945312 4.34375c-1.097656 0-1.984374.886719-1.984374 1.984375v.25c0-1.101563.886718-1.988281 1.984374-1.984375h33.738282c1.097656-.003906 1.984375.882812 1.984375 1.984375v-.25c0-1.097656-.886719-1.984375-1.984375-1.984375zm0 0" fill="#e6e6e6" fill-opacity=".392157"/><path d="m6.945312 42.050781c-1.097656 0-1.984374-.886719-1.984374-1.984375v-.25c0 1.101563.886718 1.988282 1.984374 1.988282h33.738282c1.097656 0 1.984375-.886719 1.984375-1.988282v.25c0 1.097656-.886719 1.984375-1.984375 1.984375zm0 0" fill-opacity=".196078"/><path d="m74.076259-168.671091h359.840637c11.707216 0 21.164646 9.499093 21.164646 21.164646v359.840637c0 11.707215-9.45743 21.164645-21.164646 21.164645h-359.840637c-11.665552 0-21.164645-9.45743-21.164645-21.164645v-359.840637c0-11.665553 9.499093-21.164646 21.164645-21.164646zm0 0" fill="none" stroke="#212121" stroke-linecap="round" stroke-width="3" transform="matrix(.093759 0 0 .093759 0 20.158175)"/><path d="m9.921875 21.214844c-.546875 0-.992187.441406-.992187.992187v14.882813c0 .550781.445312.992187.992187.992187h1.984375c.550781 0 .992188-.441406.992188-.992187v-5.953125h6.945312v5.953125c0 .550781.445312.992187.996094.992187h1.984375c.546875 0 .992187-.441406.992187-.992187v-14.882813c0-.550781-.445312-.992187-.992187-.992187h-1.984375c-.550782 0-.996094.441406-.996094.992187v5.953125h-6.945312v-5.953125c0-.550781-.441407-.992187-.992188-.992187zm0 0" fill="url(#i)"/><path d="m9.921875 21.214844c-.546875 0-.992187.441406-.992187.992187v.496094c0-.550781.445312-.992187.992187-.992187h1.984375c.550781 0 .992188.441406.992188.992187v-.496094c0-.550781-.441407-.992187-.992188-.992187zm10.917969 0c-.550782 0-.996094.441406-.996094.992187v.496094c0-.550781.445312-.992187.996094-.992187h1.984375c.546875 0 .992187.441406.992187.992187v-.496094c0-.550781-.445312-.992187-.992187-.992187zm-7.941406 6.945312v.496094h6.945312v-.496094zm0 0" fill="#fff"/><path d="m12.898438 31.136719v.992187h6.945312v-.992187zm-3.96875 5.953125v.992187c0 .550781.445312.992188.992187.992188h1.984375c.550781 0 .992188-.441407.992188-.992188v-.992187c0 .550781-.441407.992187-.992188.992187h-1.984375c-.546875 0-.992187-.441406-.992187-.992187zm10.914062 0v.992187c0 .550781.445312.992188.996094.992188h1.984375c.546875 0 .992187-.441407.992187-.992188v-.992187c0 .550781-.445312.992187-.992187.992187h-1.984375c-.550782 0-.996094-.441406-.996094-.992187zm0 0" fill-opacity=".235294"/><path d="m399.961827 855.193969c-22.04514 0-39.996183 17.793577-39.996183 39.996182v599.94274c0 22.202605 17.951043 39.996183 39.996183 39.996183h79.992365c22.202605 0 39.996183-17.793578 39.996183-39.996183v-239.977096h279.973278v239.977096c0 22.202605 17.951043 39.996183 40.153648 39.996183h79.992365c22.04514 0 39.996183-17.793578 39.996183-39.996183v-599.94274c0-22.202605-17.951043-39.996182-39.996183-39.996182h-79.992365c-22.202605 0-40.153648 17.793577-40.153648 39.996182v239.977096h-279.973278v-239.977096c0-22.202605-17.793578-39.996182-39.996183-39.996182zm0 0" fill="none" stroke="#212121" stroke-linecap="round" stroke-linejoin="round" stroke-width="11.338583" transform="scale(.0248071)"/><path d="m36.691406 7.1875c-.289062.007812-.566406.125-.773437.332031l-2.976563 2.976563c-.289062.28125-.40625.699218-.304687 1.089844.105469.394531.410156.699218.804687.804687.390625.101563.808594-.015625 1.089844-.304687l.710938-.710938-.527344 4.742188h-1.96875c-.40625-.003907-.785156.207031-.988282.558593-.203124.351563-.203124.785157 0 1.136719.203126.347656.582032.5625.988282.554688h5.953125c.613281-.007813 1.109375-.507813 1.109375-1.125 0-.613282-.496094-1.113282-1.109375-1.125h-1.71875l.851562-7.679688c.035157-.320312-.066406-.644531-.285156-.882812-.21875-.238282-.53125-.371094-.855469-.367188zm0 0" fill="url(#j)"/><path d="m36.691406 7.1875c-.289062.007812-.566406.125-.773437.332031l-2.976563 2.976563c-.265625.257812-.382812.628906-.320312.992187.039062-.230469.152344-.445312.320312-.613281l2.976563-2.976562c.207031-.207032.484375-.324219.773437-.328126.5625-.011718 1.042969.390626 1.132813.945313l.007812-.078125c.035157-.320312-.066406-.644531-.285156-.882812-.21875-.238282-.53125-.371094-.855469-.367188zm-1.449218 4.695312-.0625.0625-.464844 4.171876h-1.96875c-.335938-.003907-.652344.140624-.871094.394531-.214844.253906-.308594.589843-.253906.921875.09375-.546875.570312-.941406 1.125-.933594h1.96875l.464844-4.175781.015624-.015625zm1.792968 4.234376-.054687.507812h.039062l.015625-.125h1.664063c.539062.007812.996093.398438 1.089843.929688.054688-.324219-.035156-.652344-.242187-.90625-.210937-.25-.519531-.398438-.847656-.40625zm0 0" fill="#fff"/><path d="m37.804688 8.675781-.824219 7.441407h.070312l.78125-7.050782c.015625-.128906.003907-.261718-.027343-.390625zm-2.5625 2.699219-.710938.710938c-.277344.285156-.6875.402343-1.074219.304687-.390625-.09375-.699219-.390625-.808593-.773437-.144532.492187.066406 1.023437.511718 1.285156.445313.257812 1.011719.183594 1.371094-.1875l.632812-.628906zm-3.59375 6.179688c-.097657.34375-.03125.714843.183593 1 .21875.285156.554688.449218.914063.441406h5.953125c.351562-.003906.679687-.171875.886719-.453125.210937-.285157.273437-.648438.175781-.984375-.136719.472656-.570313.804687-1.0625.808594h-5.953125c-.507813.007812-.957032-.324219-1.097656-.8125zm0 0" fill-opacity=".235294"/><path d="m391.337629-138.340654c-3.083039.083325-6.04109 1.333206-8.249212 3.541329l-31.746968 31.746968c-3.083039 2.999713-4.33292 7.457621-3.24969 11.62389 1.124892 4.207931 4.374582 7.457621 8.582514 8.582514 4.166268 1.083229 8.624176-.166651 11.62389-3.24969l7.582609-7.582609-5.624463 50.578503h-20.997995c-4.332919-.041663-8.3742 2.208122-10.54066 5.957764s-2.16646 8.374201 0 12.123843c2.16646 3.707979 6.207741 5.999427 10.54066 5.916101h63.493937c6.541042-.083325 11.832203-5.416149 11.832203-11.998854 0-6.541042-5.291161-11.873866-11.832203-11.998854h-18.331583l9.082466-81.908845c.374964-3.41634-.708266-6.874343-3.041376-9.415767-2.333111-2.541424-5.666126-3.957956-9.124129-3.916293zm0 0" fill="none" stroke="#212121" stroke-linecap="round" stroke-linejoin="round" stroke-width="3" transform="matrix(.093759 0 0 .093759 0 20.158175)"/></svg>

<?xml version="1.0" encoding="UTF-8"?>
<svg xmlns="http://www.w3.org/2000/svg" xmlns:xlink="http://www.w3.org/1999/xlink" width="48px" height="48px" viewBox="0 0 48 48" version="1.1">
<defs>
<linearGradient id="linear0" gradientUnits="userSpaceOnUse" x1="254" y1="233.5" x2="254" y2="254.666672" gradientTransform="matrix(0.093759,0,0,0.093759,-0.00000572259,20.158178)">
<stop offset="0" style="stop-color:rgb(0%,0%,0%);stop-opacity:0.27451;"/>
<stop offset="1" style="stop-color:rgb(0%,0%,0%);stop-opacity:0;"/>
</linearGradient>
<radialGradient id="radial0" gradientUnits="userSpaceOnUse" cx="450.908936" cy="189.579361" fx="450.908936" fy="189.579361" r="21.166656" gradientTransform="matrix(0.000000261256,-0.117199,-0.210958,-0.000000152308,78.195972,95.392999)">
<stop offset="0" style="stop-color:rgb(0%,0%,0%);stop-opacity:0.313726;"/>
<stop offset="0.222222" style="stop-color:rgb(0%,0%,0%);stop-opacity:0.27451;"/>
<stop offset="1" style="stop-color:rgb(0%,0%,0%);stop-opacity:0;"/>
</radialGradient>
<radialGradient id="radial1" gradientUnits="userSpaceOnUse" cx="450.908936" cy="189.579361" fx="450.908936" fy="189.579361" r="21.166656" gradientTransform="matrix(-0.000000261256,0.117199,0.210958,0.000000152308,-30.56642,-11.291218)">
<stop offset="0" style="stop-color:rgb(0%,0%,0%);stop-opacity:0.313726;"/>
<stop offset="0.222222" style="stop-color:rgb(0%,0%,0%);stop-opacity:0.27451;"/>
<stop offset="1" style="stop-color:rgb(0%,0%,0%);stop-opacity:0;"/>
</radialGradient>
<radialGradient id="radial2" gradientUnits="userSpaceOnUse" cx="450.908936" cy="189.579361" fx="450.908936" fy="189.579361" r="21.166656" gradientTransform="matrix(-0.000000261256,-0.117199,0.210958,-0.000000152308,-30.56642,95.392999)">
<stop offset="0" style="stop-color:rgb(0%,0%,0%);stop-opacity:0.313726;"/>
<stop offset="0.222222" style="stop-color:rgb(0%,0%,0%);stop-opacity:0.27451;"/>
<stop offset="1" style="stop-color:rgb(0%,0%,0%);stop-opacity:0;"/>
</radialGradient>
<radialGradient id="radial3" gradientUnits="userSpaceOnUse" cx="450.908936" cy="189.579361" fx="450.908936" fy="189.579361" r="21.166656" gradientTransform="matrix(0.000000261256,0.117199,-0.210958,0.000000152308,78.195969,-11.291219)">
<stop offset="0" style="stop-color:rgb(0%,0%,0%);stop-opacity:0.313726;"/>
<stop offset="0.222222" style="stop-color:rgb(0%,0%,0%);stop-opacity:0.27451;"/>
<stop offset="1" style="stop-color:rgb(0%,0%,0%);stop-opacity:0;"/>
</radialGradient>
<linearGradient id="linear1" gradientUnits="userSpaceOnUse" x1="169.333328" y1="233.5" x2="169.333328" y2="-168.666656" gradientTransform="matrix(0.093759,0,0,0.093759,0,20.158175)">
<stop offset="0" style="stop-color:rgb(25.882354%,64.705884%,96.078432%);stop-opacity:1;"/>
<stop offset="1" style="stop-color:rgb(39.215687%,70.980394%,96.470588%);stop-opacity:1;"/>
</linearGradient>
<linearGradient id="linear2" gradientUnits="userSpaceOnUse" x1="640" y1="1695.118164" x2="640" y2="175.118134" gradientTransform="matrix(0.0248071,0,0,0.0248071,0,0.00000000000000282)">
<stop offset="0" style="stop-color:rgb(74.117649%,74.117649%,74.117649%);stop-opacity:1;"/>
<stop offset="1" style="stop-color:rgb(87.843138%,87.843138%,87.843138%);stop-opacity:1;"/>
</linearGradient>
<linearGradient id="linear3" gradientUnits="userSpaceOnUse" x1="381" y1="-9.916667" x2="381" y2="-147.5" gradientTransform="matrix(0.093759,0,0,0.093759,0,20.158175)">
<stop offset="0" style="stop-color:rgb(74.117649%,74.117649%,74.117649%);stop-opacity:1;"/>
<stop offset="1" style="stop-color:rgb(87.843138%,87.843138%,87.843138%);stop-opacity:1;"/>
</linearGradient>
</defs>
<g id="surface1">
<path style=" stroke:none;fill-rule:nonzero;fill:url(#linear0);" d="M 8.929688 41.902344 L 38.699219 41.902344 L 38.699219 44.109375 L 8.929688 44.109375 Z M 8.929688 41.902344 "/>
<path style=" stroke:none;fill-rule:nonzero;fill:url(#radial0);" d="M 38.699219 42.050781 L 42.667969 42.050781 L 42.667969 40.066406 L 38.699219 40.066406 Z M 38.699219 42.050781 "/>
<path style=" stroke:none;fill-rule:nonzero;fill:url(#radial1);" d="M 8.929688 42.050781 L 4.960938 42.050781 L 4.960938 44.035156 L 8.929688 44.035156 Z M 8.929688 42.050781 "/>
<path style=" stroke:none;fill-rule:nonzero;fill:url(#radial2);" d="M 8.929688 42.050781 L 4.960938 42.050781 L 4.960938 40.066406 L 8.929688 40.066406 Z M 8.929688 42.050781 "/>
<path style=" stroke:none;fill-rule:nonzero;fill:url(#radial3);" d="M 38.699219 42.050781 L 42.667969 42.050781 L 42.667969 44.035156 L 38.699219 44.035156 Z M 38.699219 42.050781 "/>
<path style=" stroke:none;fill-rule:nonzero;fill:url(#linear1);" d="M 6.945312 4.34375 L 40.683594 4.34375 C 41.78125 4.34375 42.667969 5.234375 42.667969 6.328125 L 42.667969 40.066406 C 42.667969 41.164062 41.78125 42.050781 40.683594 42.050781 L 6.945312 42.050781 C 5.851562 42.050781 4.960938 41.164062 4.960938 40.066406 L 4.960938 6.328125 C 4.960938 5.234375 5.851562 4.34375 6.945312 4.34375 Z M 6.945312 4.34375 "/>
<path style=" stroke:none;fill-rule:nonzero;fill:rgb(90.196079%,90.196079%,90.196079%);fill-opacity:0.392157;" d="M 6.945312 4.34375 C 5.847656 4.34375 4.960938 5.230469 4.960938 6.328125 L 4.960938 6.578125 C 4.960938 5.476562 5.847656 4.589844 6.945312 4.59375 L 40.683594 4.59375 C 41.78125 4.589844 42.667969 5.476562 42.667969 6.578125 L 42.667969 6.328125 C 42.667969 5.230469 41.78125 4.34375 40.683594 4.34375 Z M 6.945312 4.34375 "/>
<path style=" stroke:none;fill-rule:nonzero;fill:rgb(0%,0%,0%);fill-opacity:0.196078;" d="M 6.945312 42.050781 C 5.847656 42.050781 4.960938 41.164062 4.960938 40.066406 L 4.960938 39.816406 C 4.960938 40.917969 5.847656 41.804688 6.945312 41.804688 L 40.683594 41.804688 C 41.78125 41.804688 42.667969 40.917969 42.667969 39.816406 L 42.667969 40.066406 C 42.667969 41.164062 41.78125 42.050781 40.683594 42.050781 Z M 6.945312 42.050781 "/>
<path style="fill:none;stroke-width:3;stroke-linecap:round;stroke-linejoin:miter;stroke:rgb(12.941177%,12.941177%,12.941177%);stroke-opacity:1;stroke-miterlimit:4;" d="M 74.076259 -168.671091 L 433.916896 -168.671091 C 445.624112 -168.671091 455.081542 -159.171998 455.081542 -147.506445 L 455.081542 212.334192 C 455.081542 224.041407 445.624112 233.498837 433.916896 233.498837 L 74.076259 233.498837 C 62.410707 233.498837 52.911614 224.041407 52.911614 212.334192 L 52.911614 -147.506445 C 52.911614 -159.171998 62.410707 -168.671091 74.076259 -168.671091 Z M 74.076259 -168.671091 " transform="matrix(0.093759,0,0,0.093759,0,20.158175)"/>
<path style=" stroke:none;fill-rule:nonzero;fill:url(#linear2);" d="M 9.921875 21.214844 C 9.375 21.214844 8.929688 21.65625 8.929688 22.207031 L 8.929688 37.089844 C 8.929688 37.640625 9.375 38.082031 9.921875 38.082031 L 11.90625 38.082031 C 12.457031 38.082031 12.898438 37.640625 12.898438 37.089844 L 12.898438 31.136719 L 19.84375 31.136719 L 19.84375 37.089844 C 19.84375 37.640625 20.289062 38.082031 20.839844 38.082031 L 22.824219 38.082031 C 23.371094 38.082031 23.816406 37.640625 23.816406 37.089844 L 23.816406 22.207031 C 23.816406 21.65625 23.371094 21.214844 22.824219 21.214844 L 20.839844 21.214844 C 20.289062 21.214844 19.84375 21.65625 19.84375 22.207031 L 19.84375 28.160156 L 12.898438 28.160156 L 12.898438 22.207031 C 12.898438 21.65625 12.457031 21.214844 11.90625 21.214844 Z M 9.921875 21.214844 "/>
<path style=" stroke:none;fill-rule:nonzero;fill:rgb(100%,100%,100%);fill-opacity:1;" d="M 9.921875 21.214844 C 9.375 21.214844 8.929688 21.65625 8.929688 22.207031 L 8.929688 22.703125 C 8.929688 22.152344 9.375 21.710938 9.921875 21.710938 L 11.90625 21.710938 C 12.457031 21.710938 12.898438 22.152344 12.898438 22.703125 L 12.898438 22.207031 C 12.898438 21.65625 12.457031 21.214844 11.90625 21.214844 Z M 20.839844 21.214844 C 20.289062 21.214844 19.84375 21.65625 19.84375 22.207031 L 19.84375 22.703125 C 19.84375 22.152344 20.289062 21.710938 20.839844 21.710938 L 22.824219 21.710938 C 23.371094 21.710938 23.816406 22.152344 23.816406 22.703125 L 23.816406 22.207031 C 23.816406 21.65625 23.371094 21.214844 22.824219 21.214844 Z M 12.898438 28.160156 L 12.898438 28.65625 L 19.84375 28.65625 L 19.84375 28.160156 Z M 12.898438 28.160156 "/>
<path style=" stroke:none;fill-rule:nonzero;fill:rgb(0%,0%,0%);fill-opacity:0.235294;" d="M 12.898438 31.136719 L 12.898438 32.128906 L 19.84375 32.128906 L 19.84375 31.136719 Z M 8.929688 37.089844 L 8.929688 38.082031 C 8.929688 38.632812 9.375 39.074219 9.921875 39.074219 L 11.90625 39.074219 C 12.457031 39.074219 12.898438 38.632812 12.898438 38.082031 L 12.898438 37.089844 C 12.898438 37.640625 12.457031 38.082031 11.90625 38.082031 L 9.921875 38.082031 C 9.375 38.082031 8.929688 37.640625 8.929688 37.089844 Z M 19.84375 37.089844 L 19.84375 38.082031 C 19.84375 38.632812 20.289062 39.074219 20.839844 39.074219 L 22.824219 39.074219 C 23.371094 39.074219 23.816406 38.632812 23.816406 38.082031 L 23.816406 37.089844 C 23.816406 37.640625 23.371094 38.082031 22.824219 38.082031 L 20.839844 38.082031 C 20.289062 38.082031 19.84375 37.640625 19.84375 37.089844 Z M 19.84375 37.089844 "/>
<path style="fill:none;stroke-width:11.338583;stroke-linecap:round;stroke-linejoin:round;stroke:rgb(12.941177%,12.941177%,12.941177%);stroke-opacity:1;stroke-miterlimit:4;" d="M 399.961827 855.193969 C 377.916687 855.193969 359.965644 872.987546 359.965644 895.190151 L 359.965644 1495.132891 C 359.965644 1517.335496 377.916687 1535.129074 399.961827 1535.129074 L 479.954192 1535.129074 C 502.156797 1535.129074 519.950375 1517.335496 519.950375 1495.132891 L 519.950375 1255.155795 L 799.923653 1255.155795 L 799.923653 1495.132891 C 799.923653 1517.335496 817.874696 1535.129074 840.077301 1535.129074 L 920.069666 1535.129074 C 942.114806 1535.129074 960.065849 1517.335496 960.065849 1495.132891 L 960.065849 895.190151 C 960.065849 872.987546 942.114806 855.193969 920.069666 855.193969 L 840.077301 855.193969 C 817.874696 855.193969 799.923653 872.987546 799.923653 895.190151 L 799.923653 1135.167247 L 519.950375 1135.167247 L 519.950375 895.190151 C 519.950375 872.987546 502.156797 855.193969 479.954192 855.193969 Z M 399.961827 855.193969 " transform="matrix(0.0248071,0,0,0.0248071,0,0)"/>
<path style=" stroke:none;fill-rule:nonzero;fill:url(#linear3);" d="M 36.691406 7.1875 C 36.402344 7.195312 36.125 7.3125 35.917969 7.519531 L 32.941406 10.496094 C 32.652344 10.777344 32.535156 11.195312 32.636719 11.585938 C 32.742188 11.980469 33.046875 12.285156 33.441406 12.390625 C 33.832031 12.492188 34.25 12.375 34.53125 12.085938 L 35.242188 11.375 L 34.714844 16.117188 L 32.746094 16.117188 C 32.339844 16.113281 31.960938 16.324219 31.757812 16.675781 C 31.554688 17.027344 31.554688 17.460938 31.757812 17.8125 C 31.960938 18.160156 32.339844 18.375 32.746094 18.367188 L 38.699219 18.367188 C 39.3125 18.359375 39.808594 17.859375 39.808594 17.242188 C 39.808594 16.628906 39.3125 16.128906 38.699219 16.117188 L 36.980469 16.117188 L 37.832031 8.4375 C 37.867188 8.117188 37.765625 7.792969 37.546875 7.554688 C 37.328125 7.316406 37.015625 7.183594 36.691406 7.1875 Z M 36.691406 7.1875 "/>
<path style=" stroke:none;fill-rule:nonzero;fill:rgb(100%,100%,100%);fill-opacity:1;" d="M 36.691406 7.1875 C 36.402344 7.195312 36.125 7.3125 35.917969 7.519531 L 32.941406 10.496094 C 32.675781 10.753906 32.558594 11.125 32.621094 11.488281 C 32.660156 11.257812 32.773438 11.042969 32.941406 10.875 L 35.917969 7.898438 C 36.125 7.691406 36.402344 7.574219 36.691406 7.570312 C 37.253906 7.558594 37.734375 7.960938 37.824219 8.515625 L 37.832031 8.4375 C 37.867188 8.117188 37.765625 7.792969 37.546875 7.554688 C 37.328125 7.316406 37.015625 7.183594 36.691406 7.1875 Z M 35.242188 11.882812 L 35.179688 11.945312 L 34.714844 16.117188 L 32.746094 16.117188 C 32.410156 16.113281 32.09375 16.257812 31.875 16.511719 C 31.660156 16.765625 31.566406 17.101562 31.621094 17.433594 C 31.714844 16.886719 32.191406 16.492188 32.746094 16.5 L 34.714844 16.5 L 35.179688 12.324219 L 35.195312 12.308594 Z M 37.035156 16.117188 L 36.980469 16.625 L 37.019531 16.625 L 37.035156 16.5 L 38.699219 16.5 C 39.238281 16.507812 39.695312 16.898438 39.789062 17.429688 C 39.84375 17.105469 39.753906 16.777344 39.546875 16.523438 C 39.335938 16.273438 39.027344 16.125 38.699219 16.117188 Z M 37.035156 16.117188 "/>
<path style=" stroke:none;fill-rule:nonzero;fill:rgb(0%,0%,0%);fill-opacity:0.235294;" d="M 37.804688 8.675781 L 36.980469 16.117188 L 37.050781 16.117188 L 37.832031 9.066406 C 37.847656 8.9375 37.835938 8.804688 37.804688 8.675781 Z M 35.242188 11.375 L 34.53125 12.085938 C 34.253906 12.371094 33.84375 12.488281 33.457031 12.390625 C 33.066406 12.296875 32.757812 12 32.648438 11.617188 C 32.503906 12.109375 32.714844 12.640625 33.160156 12.902344 C 33.605469 13.160156 34.171875 13.085938 34.53125 12.714844 L 35.164062 12.085938 Z M 31.648438 17.554688 C 31.550781 17.898438 31.617188 18.269531 31.832031 18.554688 C 32.050781 18.839844 32.386719 19.003906 32.746094 18.996094 L 38.699219 18.996094 C 39.050781 18.992188 39.378906 18.824219 39.585938 18.542969 C 39.796875 18.257812 39.859375 17.894531 39.761719 17.558594 C 39.625 18.03125 39.191406 18.363281 38.699219 18.367188 L 32.746094 18.367188 C 32.238281 18.375 31.789062 18.042969 31.648438 17.554688 Z M 31.648438 17.554688 "/>
<path style="fill:none;stroke-width:3;stroke-linecap:round;stroke-linejoin:round;stroke:rgb(12.941177%,12.941177%,12.941177%);stroke-opacity:1;stroke-miterlimit:4;" d="M 391.337629 -138.340654 C 388.25459 -138.257329 385.296539 -137.007448 383.088417 -134.799325 L 351.341449 -103.052357 C 348.25841 -100.052644 347.008529 -95.594736 348.091759 -91.428467 C 349.216651 -87.220536 352.466341 -83.970846 356.674273 -82.845953 C 360.840541 -81.762724 365.298449 -83.012604 368.298163 -86.095643 L 375.880772 -93.678252 L 370.256309 -43.099749 L 349.258314 -43.099749 C 344.925395 -43.141412 340.884114 -40.891627 338.717654 -37.141985 C 336.551194 -33.392343 336.551194 -28.767784 338.717654 -25.018142 C 340.884114 -21.310163 344.925395 -19.018715 349.258314 -19.102041 L 412.752251 -19.102041 C 419.293293 -19.185366 424.584454 -24.51819 424.584454 -31.100895 C 424.584454 -37.641937 419.293293 -42.974761 412.752251 -43.099749 L 394.420668 -43.099749 L 403.503134 -125.008594 C 403.878098 -128.424934 402.794868 -131.882937 400.461758 -134.424361 C 398.128647 -136.965785 394.795632 -138.382317 391.337629 -138.340654 Z M 391.337629 -138.340654 " transform="matrix(0.093759,0,0,0.093759,0,20.158175)"/>
</g>
</svg>
